project/src/img/wineglass.svg

<svg width="26" height="42" viewBox="0 0 26 42" fill="none" xmlns="http://www.w3.org/2000/svg">
<path fill-rule="evenodd" clip-rule="evenodd" d="M12.275 0.600628C12.1716 0.338176 11.9236 0.166626 11.6486 0.166626H1.17565C0.802708 0.166626 0.5 0.477743 0.5 0.861045V11.2777C0.5 11.5562 0.662162 11.8083 0.912136 11.9173C0.997255 11.9541 1.08649 11.9722 1.17565 11.9722C1.34724 11.9722 1.51684 11.9048 1.64591 11.777L5.44801 7.99535L6.57349 12.043L5.90726 20.9457C5.8877 21.2048 5.8782 21.4638 5.87892 21.7235C5.89232 26.3686 9.08996 30.2538 13.3369 31.1977V37.6666H10.6349C8.77213 37.6666 7.25653 39.2242 7.25653 41.1388C7.25653 41.5229 7.55924 41.8332 7.93218 41.8332H22.797C23.1707 41.8332 23.4727 41.5229 23.4727 41.1388C23.4729 39.2242 21.9573 37.6666 20.0944 37.6666H17.3917V31.1976C21.9405 30.1886 25.1905 25.8449 24.8221 20.9465L24.1558 12.043L25.4741 7.30198C25.5322 7.09226 25.4911 6.8666 25.364 6.69293C25.2356 6.51861 25.0356 6.41656 24.8241 6.41656H7.87353L7.4613 5.99288L12.1189 1.36031C12.3169 1.16313 12.3783 0.862429 12.275 0.600628ZM7.31387 7.80556H6.80105L7.9065 11.7812C7.92395 11.8433 7.93273 11.9075 7.93277 11.9722H11.3679L7.31387 7.80556ZM7.25516 21.0535L7.83086 13.3611H22.8997L23.4754 21.0534C23.82 25.6346 20.4734 29.6493 16.016 30.0035C15.8004 30.0201 15.5876 30.0312 15.3673 30.0278H15.339C10.8788 30.0278 7.24439 26.3055 7.23085 21.7194C7.23014 21.4979 7.23829 21.275 7.25516 21.0535ZM22.8234 11.7812C22.8065 11.8437 22.7979 11.9079 22.7979 11.9722H13.279L9.22499 7.80556H23.9281L22.8234 11.7812ZM1.8513 4.06567V9.63955L3.56326 7.93679L1.8513 4.06567ZM4.59376 6.91183L7.07044 4.44846L2.71194 2.65663L4.59376 6.91183ZM3.67241 1.55555L8.13461 3.39001L9.97898 1.55555H3.67241ZM16.0404 37.6666V31.3939C15.8163 31.4096 15.5959 31.4179 15.3646 31.4166H15.3376C15.1194 31.4166 14.9029 31.409 14.6883 31.394V37.6666H16.0404ZM8.72344 40.4443C9.00247 39.636 9.75382 39.0554 10.6349 39.0554H20.0944C20.9755 39.0554 21.7269 39.636 22.0059 40.4443H8.72344ZM19.4364 16.1395C19.6215 16.1444 19.7972 16.2285 19.9208 16.3708C22.2175 19.0104 22.2175 22.991 19.9209 25.6298C19.9047 25.6486 19.8864 25.6673 19.8682 25.684C18.5844 26.8646 16.9743 27.4548 15.3641 27.4548C13.754 27.4548 12.1431 26.8646 10.8594 25.684C10.7208 25.5569 10.6391 25.377 10.6343 25.1854C10.629 24.9951 10.7006 24.8104 10.8317 24.6757L18.9398 16.3423C19.0702 16.2076 19.2303 16.1284 19.4364 16.1395ZM12.3263 25.1042C13.3941 25.8519 14.6605 26.1635 15.8939 26.0389L14.9985 22.3578L12.3263 25.1042ZM18.9398 24.675C18.4185 25.1475 17.8314 25.4996 17.2118 25.7313L16.2929 21.9533L19.9679 22.8976C19.7425 23.5349 19.3998 24.139 18.9398 24.675ZM19.3574 17.8778C20.0847 18.975 20.3877 20.2765 20.2667 21.5439L16.6856 20.6237L19.3574 17.8778ZM9.28383 19.6111H10.6352V21H9.28383V19.6111ZM12.6625 16.8332H11.3111V18.2221H12.6625V16.8332ZM21.4461 0.166626H22.7975V1.55556H24.1475V2.94447H22.7975V4.3333H21.4461V2.94447H20.0935V1.55556H21.4461V0.166626ZM16.716 2.94423H18.0673V4.33315H16.716V2.94423Z" fill="black"/>
</svg>

<svg width="26" height="42" fill="none" xmlns="http://www.w3.org/2000/svg"><path fill-rule="evenodd" clip-rule="evenodd" d="M12.275.6a.676.676 0 0 0-.626-.433H1.176A.685.685 0 0 0 .5.86v10.417c0 .278.162.53.412.64a.662.662 0 0 0 .734-.141l3.802-3.782 1.125 4.048-.666 8.903c-.02.259-.029.518-.028.777.013 4.646 3.211 8.53 7.458 9.475v6.469h-2.702c-1.863 0-3.378 1.557-3.378 3.472 0 .384.302.694.675.694h14.865c.374 0 .676-.31.676-.694 0-1.915-1.516-3.472-3.379-3.472h-2.702v-6.47c4.549-1.008 7.799-5.352 7.43-10.25l-.666-8.904 1.318-4.741a.712.712 0 0 0-.11-.61.671.671 0 0 0-.54-.275H7.874l-.413-.424L12.12 1.36a.708.708 0 0 0 .156-.76zM7.314 7.807H6.8l1.106 3.975a.707.707 0 0 1 .026.191h3.435L7.314 7.806zm-.059 13.247l.576-7.692H22.9l.575 7.692c.345 4.582-3.002 8.596-7.459 8.95a6.97 6.97 0 0 1-.649.025h-.028c-4.46 0-8.095-3.723-8.108-8.309 0-.221.007-.444.024-.666zm15.568-9.272a.732.732 0 0 0-.025.191h-9.519L9.225 7.806h14.703l-1.105 3.975zM1.851 4.066V9.64l1.712-1.703-1.712-3.871zm2.743 2.846L7.07 4.448 2.712 2.657l1.882 4.255zm-.922-5.356L8.135 3.39l1.844-1.834H3.672zm12.368 36.11v-6.272a8.847 8.847 0 0 1-.675.023h-.027a9.31 9.31 0 0 1-.65-.023v6.273h1.352zm-7.317 2.778c.28-.808 1.03-1.389 1.912-1.389h9.46c.88 0 1.632.581 1.91 1.39H8.724zM19.436 16.14c.186.005.361.09.485.232 2.297 2.64 2.297 6.62 0 9.259a.658.658 0 0 1-.053.054 6.635 6.635 0 0 1-4.504 1.77c-1.61 0-3.22-.59-4.505-1.77a.704.704 0 0 1-.028-1.008l8.109-8.334a.617.617 0 0 1 .496-.202zm-7.11 8.965a5.284 5.284 0 0 0 3.568.935l-.896-3.681-2.672 2.746zm6.614-.429a5.373 5.373 0 0 1-1.728 1.056l-.92-3.778 3.676.945a5.584 5.584 0 0 1-1.028 1.777zm.417-6.797a5.664 5.664 0 0 1 .91 3.666l-3.581-.92 2.671-2.746zM9.284 19.61h1.351V21H9.284v-1.389zm3.378-2.778h-1.35v1.39h1.35v-1.39zM21.447.167h1.351v1.389h1.35v1.388h-1.35v1.39h-1.35v-1.39h-1.354V1.556h1.353V.166zm-4.73 2.777h1.351v1.39h-1.351v-1.39z" fill="#000"/></svg>
